resources/haticons/SVG/mail_outline.svg

<!-- Generated by IcoMoon.io -->
<svg version="1.1" xmlns="http://www.w3.org/2000/svg" width="24" height="24" viewBox="0 0 24 24">
<title>mail_outline</title>
<path d="M12 11.016l8.016-5.016h-16.031zM20.016 18v-9.984l-8.016 4.969-8.016-4.969v9.984h16.031zM20.016 3.984q0.797 0 1.383 0.609t0.586 1.406v12q0 0.797-0.586 1.406t-1.383 0.609h-16.031q-0.797 0-1.383-0.609t-0.586-1.406v-12q0-0.797 0.586-1.406t1.383-0.609h16.031z"></path>
</svg>

<svg xmlns="http://www.w3.org/2000/svg" width="24" height="24"><path d="M12 11.016L20.016 6H3.985zM20.016 18V8.016L12 12.985 3.984 8.016V18h16.031zm0-14.016q.797 0 1.383.609t.586 1.406v12q0 .797-.586 1.406t-1.383.609H3.985q-.797 0-1.383-.609t-.586-1.406v-12q0-.797.586-1.406t1.383-.609h16.031z"/></svg>
